dist/svg/undo.svg

<svg width="16" height="16" viewBox="0 0 16 16" fill="rgb(34, 34, 34)" xmlns="http://www.w3.org/2000/svg"><title>undo</title><path d="M14.76 9.81195C13.934 12.824 11.22 15 7.99799 15C5.42099 15 3.16899 13.607 1.95399 11.533L1.93599 11.5L3.66799 10.5C4.54799 12.011 6.16099 13.011 8.00699 13.011C10.771 13.011 13.011 10.771 13.011 8.00695C13.011 5.24295 10.771 3.00295 8.00699 3.00295C6.37499 3.00295 4.92599 3.78395 4.01199 4.99295L4.00299 5.00595L5.99799 7.00095H0.997986V2.00095L2.57699 3.57995C3.86999 2.00195 5.81899 1.00195 8.00199 1.00195C11.866 1.00195 14.999 4.13495 14.999 7.99895C14.999 8.64395 14.912 9.26895 14.748 9.86195L14.76 9.81195Z" fill="rgb(34, 34, 34)" fill-opacity="1.00"/></svg>

<!-- Generated by Trend Micro Style Portal -->
<svg version="1.1" xmlns="http://www.w3.org/2000/svg" width="16" height="16" viewBox="0 0 16 16">
  <title>undo</title>
  <path fill="rgb(34,34,34)" d="M14.76 9.812c-0.826 3.012-3.54 5.188-6.762 5.188-2.577 0-4.829-1.393-6.044-3.467l-0.018-0.033 1.732-1c0.88 1.511 2.493 2.511 4.339 2.511 2.764 0 5.004-2.24 5.004-5.004s-2.24-5.004-5.004-5.004c-1.632 0-3.081 0.781-3.995 1.99l-0.009 0.013 1.995 1.995h-5v-5l1.579 1.579c1.293-1.578 3.242-2.578 5.425-2.578 3.864 0 6.997 3.133 6.997 6.997 0 0.645-0.087 1.27-0.251 1.863l0.012-0.049z"></path>
</svg>
